X: 0782
T: McDONALD'S REEL
B: Oliver Ditson "The Boston Collection of Instrumental Music" 1910 p.78 #2
F: http://conquest.imslp.info/files/imglnks/usimg/8/8f/IMSLP175643-PMLP309456-bostoncollection00bost_bw.pdf
%: 2012 John Chambers <jc:trillian.mit.edu>
M: 4/4
L: 1/8
K: G
   B | d3e d>Bg>B | dBgB aA AB | Td^cde dBgB | A/B/c BA BGG :|
|: B | DGBG AGBG | DGBG AGAB | DGBG AGBG | dedc BGG ||
   d | dgbg agbg | dgbg agec' | bagf gfed | efga bgg :|

%%sep 1 1 500
%%sep 1 1 500
